X:1
T:Title
%%score { ( 1 4 ) | ( 2 3 ) }
L:1/8
M:3/2
K:G
V:1 treble nm="Grand Piano"
V:4 treble 
V:2 bass 
V:3 bass 
V:1
 z4 z4[Q:1/4=236] D4 | D4 G4 c4 | [DFB]4 [CFA]4 [DFA]4 | [DGd]4 [DF]4 [DG]4 | %4
 [DFB]4 [CFA]4 [B,G]4 | [B,FG]4 [CEG]4 [Fe]4 | [DGd]4 [DGB]4 [G,B,G]4 | [G,^CE]4 [G,CF]6 [G,CG]2 | %8
 [CA]8[K:bass] [F,CD]4 | [G,CD]4[K:treble] [DG]4 [EAc]4 | [DFB]4 [FA]4 [DFA]4 | %11
 [DGd]4 [DF]4 [DG]4 | [DFB]4 [CFA]4 [B,G]2 [B,G]2 | [B,=FG]4 [CEG]4 [^Fe]4 | [DGd]4 [DFB]4 [B,G]4 | %15
 z4 F8 |[M:4/4] [G,B,G]8 |] %17
V:2
 z4 z4 [F,A,C]4 | [G,B,]4[K:treble] [B,D]4 [A,EG]4 | D,4 D,4 C4 | B,4 B,4 B,4 | D,4 D,4 E,4 | %5
 D,4 C,4 C4 | B,4 G,4 E,4 | A,,4 A,,6 A,,2 | G,4 F,4 D,4 | G,,4 B,,4 A,,4 | D,4[K:treble] D4 C4 | %11
 B,4 C4 B,4 | D,4 D,4 E,2 E,2 | D,4 C,4 C4 | B,4 D,4 E,4 | A,,4 D,4 z2 D2 |[M:4/4] G,,8 |] %17
V:3
 x12 | x4[K:treble] x8 | x12 | x12 | x12 | x12 | x12 | x12 | D,8 z4 | x12 | x4[K:treble] x8 | x12 | %12
 x12 | x12 | x12 | z4 z4 D,4 |[M:4/4] x8 |] %17
V:4
 x12 | x12 | x12 | x12 | x12 | x12 | x12 | x12 | x8[K:bass] x4 | x4[K:treble] x8 | x12 | x12 | %12
 x12 | x12 | x12 | [G,^CE]4 [A,=C]4 [F,C]4 |[M:4/4] x8 |] %17

